build/images/icon-search.svg

<svg width="30" height="30" viewBox="0 0 30 30" fill="none" xmlns="http://www.w3.org/2000/svg">
<path d="M13.2114 0C5.92681 0 0 5.92682 0 13.2114C0 20.4963 5.92681 26.4227 13.2114 26.4227C20.4963 26.4227 26.4227 20.4963 26.4227 13.2114C26.4227 5.92682 20.4963 0 13.2114 0ZM13.2114 23.9838C7.27154 23.9838 2.43902 19.1513 2.43902 13.2114C2.43902 7.2716 7.27154 2.43902 13.2114 2.43902C19.1512 2.43902 23.9837 7.27154 23.9837 13.2114C23.9837 19.1512 19.1512 23.9838 13.2114 23.9838Z" fill="url(#paint0_linear)"/>
<path d="M29.6427 27.9183L22.6508 20.9264C22.1744 20.45 21.4028 20.45 20.9264 20.9264C20.45 21.4024 20.45 22.1748 20.9264 22.6508L27.9183 29.6427C28.1565 29.8809 28.4683 30 28.7805 30C29.0923 30 29.4044 29.8809 29.6427 29.6427C30.1191 29.1667 30.1191 28.3943 29.6427 27.9183Z" fill="url(#paint1_linear)"/>
<defs>
<linearGradient id="paint0_linear" x1="15" y1="0" x2="15" y2="30" gradientUnits="userSpaceOnUse">
<stop stop-color="#0167C6"/>
<stop offset="1" stop-color="#014080"/>
</linearGradient>
<linearGradient id="paint1_linear" x1="15" y1="0" x2="15" y2="30" gradientUnits="userSpaceOnUse">
<stop stop-color="#0167C6"/>
<stop offset="1" stop-color="#014080"/>
</linearGradient>
</defs>
</svg>

<svg width="30" height="30" fill="none" xmlns="http://www.w3.org/2000/svg"><path d="M13.211 0C5.927 0 0 5.927 0 13.211c0 7.285 5.927 13.212 13.211 13.212 7.285 0 13.212-5.927 13.212-13.212C26.423 5.927 20.496 0 13.21 0zm0 23.984c-5.94 0-10.772-4.833-10.772-10.773 0-5.94 4.833-10.772 10.772-10.772 5.94 0 10.773 4.833 10.773 10.772 0 5.94-4.833 10.773-10.773 10.773z" fill="url(#paint0_linear)"/><path d="M29.643 27.918l-6.992-6.992a1.219 1.219 0 10-1.725 1.725l6.992 6.992a1.215 1.215 0 001.725 0 1.219 1.219 0 000-1.725z" fill="url(#paint1_linear)"/><defs><linearGradient id="paint0_linear" x1="15" y1="0" x2="15" y2="30" gradientUnits="userSpaceOnUse"><stop stop-color="#0167C6"/><stop offset="1" stop-color="#014080"/></linearGradient><linearGradient id="paint1_linear" x1="15" y1="0" x2="15" y2="30" gradientUnits="userSpaceOnUse"><stop stop-color="#0167C6"/><stop offset="1" stop-color="#014080"/></linearGradient></defs></svg>
